assets/img/icons/s-print.svg

<svg width="20" height="20" viewBox="0 0 20 20" fill="none" xmlns="http://www.w3.org/2000/svg">
<path d="M4.66675 16.6667H2.00008C1.2637 16.6667 0.666748 16.0698 0.666748 15.3334V10.0001C0.666748 9.2637 1.2637 8.66675 2.00008 8.66675H18.0001C18.7365 8.66675 19.3334 9.2637 19.3334 10.0001V15.3334C19.3334 16.0698 18.7365 16.6667 18.0001 16.6667H15.3334M4.66675 8.66675V2.00008C4.66675 1.2637 5.2637 0.666748 6.00008 0.666748H14.0001C14.7365 0.666748 15.3334 1.2637 15.3334 2.00008V8.66675M4.66675 14.0001H15.3334V19.3334H4.66675V14.0001Z" stroke="#1B283D"/>
</svg>

<svg width="20" height="20" fill="none" xmlns="http://www.w3.org/2000/svg"><path d="M4.667 16.667H2a1.333 1.333 0 0 1-1.333-1.334V10c0-.736.597-1.333 1.333-1.333h16c.736 0 1.333.597 1.333 1.333v5.333c0 .737-.596 1.334-1.333 1.334h-2.667m-10.666-8V2c0-.736.597-1.333 1.333-1.333h8c.736 0 1.333.597 1.333 1.333v6.667M4.667 14h10.666v5.333H4.667V14Z" stroke="#1B283D"/></svg>
